public/logos/logo.svg

<svg xmlns="http://www.w3.org/2000/svg" xml:space="preserve" fill-rule="evenodd" stroke-linecap="round" stroke-linejoin="round" stroke-miterlimit="1.5" clip-rule="evenodd" viewBox="0 0 243 243"><g transform="translate(-407.67 -788.08)scale(.4415)"><path fill="url(#a)" d="M1465.336 1925.69v267.523c0 73.825-59.937 133.761-133.762 133.761h-267.523c-73.825 0-133.761-59.936-133.761-133.761V1925.69c0-73.825 59.936-133.762 133.761-133.762h267.523c73.825 0 133.762 59.937 133.762 133.762"/><clipPath id="b"><path d="M1465.336 1925.69v267.523c0 73.825-59.937 133.761-133.762 133.761h-267.523c-73.825 0-133.761-59.936-133.761-133.761V1925.69c0-73.825 59.936-133.762 133.761-133.762h267.523c73.825 0 133.762 59.937 133.762 133.762"/></clipPath><g stroke="#fff" clip-path="url(#b)"><path fill="url(#c)" stroke-width="6.02" d="m1130.969 2212.437-374.204-.066q-1.21.044-2.43.044c-36.814 0-66.702-29.888-66.702-66.701 0-36.814 29.888-66.702 66.702-66.702q1.327 0 2.642.052a92 92 0 0 1-.036-2.576c0-50.973 41.384-92.356 92.356-92.356 12.546 0 24.511 2.507 35.421 7.047q-.031-1.395-.031-2.796c0-67.964 55.178-123.141 123.141-123.141s123.141 55.177 123.141 123.141z" transform="matrix(-2.29598 0 0 2.29598 3305.508 -2223.114)"/><ellipse cx="830.167" cy="590.45" fill="url(#d)" stroke-width="6.28" rx="77.566" ry="71.234" transform="matrix(2.10304 0 0 2.28997 -548.058 707.337)"/><path fill="url(#e)" stroke-width="10.86" d="m1130.969 2212.437-374.204-.066q-1.21.044-2.43.044c-36.814 0-66.702-29.888-66.702-66.701 0-36.814 29.888-66.702 66.702-66.702q1.327 0 2.642.052a92 92 0 0 1-.036-2.576c0-50.973 41.384-92.356 92.356-92.356 12.546 0 24.511 2.507 35.421 7.047q-.031-1.395-.031-2.796c0-67.964 55.178-123.141 123.141-123.141s123.141 55.177 123.141 123.141z" transform="translate(153.872 -389.99)scale(1.2717)"/></g><path fill="none" stroke="#fff" stroke-width="13.81" d="M1465.336 1925.69v267.523c0 73.825-59.937 133.761-133.762 133.761h-267.523c-73.825 0-133.761-59.936-133.761-133.761V1925.69c0-73.825 59.936-133.762 133.761-133.762h267.523c73.825 0 133.762 59.937 133.762 133.762"/></g><defs><linearGradient id="a" x1="0" x2="1" y1="0" y2="0" gradientTransform="translate(930.29 2059.451)scale(535.04577)" gradientUnits="userSpaceOnUse"><stop offset="0" stop-color="#ffd500"/><stop offset="1" stop-color="#f2af0d"/></linearGradient><linearGradient id="c" x1="0" x2="1" y1="0" y2="0" gradientTransform="matrix(443.3358 0 0 347.19567 687.633 2038.84)" gradientUnits="userSpaceOnUse"><stop offset="0" stop-color="#1e2876"/><stop offset=".52" stop-color="#2353cc"/><stop offset="1" stop-color="#2563eb"/></linearGradient><linearGradient id="d" x1="0" x2="1" y1="0" y2="0" gradientTransform="matrix(155.13161 0 0 142.4678 752.601 590.45)" gradientUnits="userSpaceOnUse"><stop offset="0" stop-color="#fff946"/><stop offset="1" stop-color="#ffc500"/></linearGradient><linearGradient id="e" x1="0" x2="1" y1="0" y2="0" gradientTransform="matrix(443.3358 0 0 347.19567 687.633 2038.84)" gradientUnits="userSpaceOnUse"><stop offset="0" stop-color="#38a6fa"/><stop offset="1" stop-color="#0579d1"/></linearGradient></defs></svg>

<?xml version="1.0" encoding="UTF-8" standalone="no"?>
<!DOCTYPE svg PUBLIC "-//W3C//DTD SVG 1.1//EN" "http://www.w3.org/Graphics/SVG/1.1/DTD/svg11.dtd">
<svg width="100%" height="100%" viewBox="0 0 501 501" version="1.1" xmlns="http://www.w3.org/2000/svg" xmlns:xlink="http://www.w3.org/1999/xlink" xml:space="preserve" xmlns:serif="http://www.serif.com/" style="fill-rule:evenodd;clip-rule:evenodd;stroke-linecap:round;stroke-linejoin:round;stroke-miterlimit:1.5;">
    <g transform="matrix(1,0,0,1,-989.698163,-1503.47769)">
        <g transform="matrix(0.905066,0,0,0.905066,156.057262,-110.003261)">
            <path d="M1465.336,1925.69L1465.336,2193.213C1465.336,2267.038 1405.399,2326.974 1331.574,2326.974L1064.051,2326.974C990.226,2326.974 930.29,2267.038 930.29,2193.213L930.29,1925.69C930.29,1851.865 990.226,1791.928 1064.051,1791.928L1331.574,1791.928C1405.399,1791.928 1465.336,1851.865 1465.336,1925.69Z" style="fill:rgb(255,197,0);"/>
            <clipPath id="_clip1">
                <path d="M1465.336,1925.69L1465.336,2193.213C1465.336,2267.038 1405.399,2326.974 1331.574,2326.974L1064.051,2326.974C990.226,2326.974 930.29,2267.038 930.29,2193.213L930.29,1925.69C930.29,1851.865 990.226,1791.928 1064.051,1791.928L1331.574,1791.928C1405.399,1791.928 1465.336,1851.865 1465.336,1925.69Z"/>
            </clipPath>
            <g clip-path="url(#_clip1)">
                <g transform="matrix(1.104891,0,0,1.104891,-238.9668,-274.385143)">
                    <circle cx="1107.45" cy="2339.431" r="228.494" style="fill:rgb(37,99,235);stroke:white;stroke-width:16.67px;"/>
                </g>
                <g transform="matrix(2.103036,0,0,2.289973,-548.058072,707.337006)">
                    <ellipse cx="830.167" cy="590.45" rx="77.566" ry="71.234" style="fill:rgb(255,197,0);stroke:white;stroke-width:8.38px;"/>
                </g>
                <g transform="matrix(1.271701,0,0,1.271701,153.872033,-389.989186)">
                    <path d="M883.949,2162.113C873.246,2166.453 861.549,2168.844 849.297,2168.844C838.539,2168.844 828.208,2167 818.603,2163.612C810.774,2191.745 784.949,2212.415 754.335,2212.415C717.521,2212.415 687.633,2182.527 687.633,2145.714C687.633,2108.9 717.521,2079.012 754.335,2079.012C755.22,2079.012 756.1,2079.029 756.977,2079.064C756.953,2078.208 756.941,2077.349 756.941,2076.488C756.941,2025.515 798.325,1984.132 849.297,1984.132C861.843,1984.132 873.808,1986.639 884.718,1991.179C884.697,1990.249 884.687,1989.317 884.687,1988.383C884.687,1920.419 939.865,1865.242 1007.828,1865.242C1075.792,1865.242 1130.969,1920.419 1130.969,1988.383C1130.969,2011.235 1124.731,2032.642 1113.865,2050.992L1130.969,2050.992L1130.969,2241.346L883.949,2241.346L883.949,2162.113Z" style="fill:rgb(56,166,250);stroke:white;stroke-width:14.48px;"/>
                </g>
            </g>
            <path d="M1465.336,1925.69L1465.336,2193.213C1465.336,2267.038 1405.399,2326.974 1331.574,2326.974L1064.051,2326.974C990.226,2326.974 930.29,2267.038 930.29,2193.213L930.29,1925.69C930.29,1851.865 990.226,1791.928 1064.051,1791.928L1331.574,1791.928C1405.399,1791.928 1465.336,1851.865 1465.336,1925.69Z" style="fill:none;stroke:white;stroke-width:18.41px;"/>
        </g>
    </g>
</svg>
